X:1
T:Title
%%score { ( 1 3 ) | ( 2 4 ) }
L:1/8
Q:1/4=106
M:4/4
K:Ab
V:1 treble nm="Grand Piano"
V:3 treble 
V:2 bass 
V:4 bass 
V:1
 A3 G F2 C2 | E4 z4 | F3 F E2 D2 | C6 z2 | A3 A B2 _c2 | c4 A4 | G3 F =E2 F2 | B8 | E3 F G2 F2 | %9
w: J.~Lincoln~Hall * * *|||||||||
 F4[K:bass] E4 | F3 F A2 F2 | [=Ec]6 z2 | [Ed]3 [Gd] [Gc]2 [GB]2 | e4 A4 | %14
w: |||||
 [Fc]2 [FB]2 [EA]2 [DG]2 | [CA]6 z2 | [Ee]3 [Ee] [Ee]2 [Gd]2 | c3 B A4 | [=Ec]3 [Fc] [Gc]2 [GB]2 | %19
w: |||||
 A3 G F4 | e3 A f2 e2 | e4 d4 | [Ae]2 [CA]2 [EGc]2 [DGB]2 | [CEA]6 z2 |] %24
w: |||||
V:2
 A,3 G, F,2 C,2 | [G,B,]2 B,2 A,,4 | [D,A,D]3 [D,A,D] [E,G,B,]2 [E,G,B,]2 | [F,A,]6 z2 | %4
 [F,A,C]3 [F,A,C] [F,A,D]2 [F,A,=D]2 | [E,A,E]4 [E,CE]4 | [A,B,=D]3 [A,B,D] [A,B,D]2 [A,B,D]2 | %7
 [G,B,E]4 [E,G,]4 | [E,G,D]3 [E,A,D] [E,B,D]2 [E,G,D]2 | [A,C]4 [A,C]4 | %10
 [D,A,D]3 [D,A,D] [D,F,D]2 [D,F,D]2 | [C,G,]6 z2 | [E,G,]3 [E,B,] [E,E]2 [E,D]2 | [A,CA]4 [A,C]4 | %14
 [D,D]2 [D,D]2 [E,C]2 [E,B,]2 | [A,,A,]6 z2 | [E,G,]3 [F,A,] [G,B,]2 [E,E]2 | E4[K:bass] z4 | %18
 [C,G,]3 [C,A,] [C,B,]2 [=E,C]2 | C4 z4 | [A,CA]3 [A,C] [=A,CG]2 [A,CG]2 | [B,DF]4 [B,DF]4 | %22
 [E,C]2 E,2 E,2 E,2 | A,6 z2 |] %24
V:3
 x8 | z2 D2 [A,CE]4 | x8 | x8 | x8 | x8 | x8 | z4 D4 | x8 | z2[K:bass] E,2 z2 A,,2 | x8 | x8 | x8 | %13
 x8 | x8 | x8 | x8 | x8 | x8 | x8 | x8 | x8 | x8 | x8 |] %24
V:4
 x8 | E,4 z4 | x8 | x8 | x8 | x8 | x8 | x8 | x8 | z4 C,2 z2 | x8 | x8 | x8 | x8 | x8 | x8 | x8 | %17
 [A,A]3- [A,DA][K:bass] [A,CE]4 | x8 | [F,F]3- [F,-B,F] [F,A,]4 | x8 | x8 | x8 | x8 |] %24

